src/ui/static/img/producao-audiovisual.svg

<svg width="512" height="512" viewBox="0 0 512 512" fill="none" xmlns="http://www.w3.org/2000/svg">
<path d="M68.6055 497.713H384.311C398.621 497.713 410.222 486.091 410.222 471.756V233.876C410.222 219.54 398.621 207.918 384.311 207.918H68.6055" fill="#AEEFF6"/>
<path d="M68.605 392.161V207.919H35.911C21.601 207.919 10 219.54 10 233.876V471.755C10 486.091 21.601 497.712 35.911 497.712H68.605" fill="#6EB4C7"/>
<path d="M68.6084 443.92C61.7134 444.125 56.5344 436.388 59.3694 430.09C62.6644 421.936 74.5444 421.935 77.8384 430.09C80.6794 436.381 75.4964 444.12 68.6084 443.92Z" fill="#546A7B"/>
<path d="M502 471.407L410.223 429.591V276.041L502 234.225V471.407Z" fill="#6EB4C7"/>
<path d="M163.309 387.725H357.283V451.456H163.309V387.725Z" fill="white"/>
<path d="M357.284 461.456H163.311C157.788 461.456 153.311 456.978 153.311 451.456V387.726C153.311 382.204 157.788 377.726 163.311 377.726H357.285C362.807 377.726 367.285 382.204 367.285 387.726V451.456C367.284 456.978 362.807 461.456 357.284 461.456ZM173.311 441.456H347.285V397.726H173.311V441.456Z" fill="#546A7B"/>
<path d="M265.641 351.004C277.446 351.004 287.016 341.417 287.016 329.591C287.016 317.765 277.446 308.178 265.641 308.178C253.836 308.178 244.266 317.765 244.266 329.591C244.266 341.417 253.836 351.004 265.641 351.004Z" fill="#FF5D5D"/>
<path d="M265.641 361.004C248.341 361.004 234.266 346.912 234.266 329.591C234.266 312.27 248.341 298.178 265.641 298.178C282.941 298.178 297.016 312.27 297.016 329.591C297.016 346.912 282.941 361.004 265.641 361.004ZM265.641 318.178C259.369 318.178 254.266 323.298 254.266 329.591C254.266 335.884 259.369 341.004 265.641 341.004C271.914 341.004 277.016 335.884 277.016 329.591C277.016 323.298 271.913 318.178 265.641 318.178Z" fill="#546A7B"/>
<path d="M335.91 351.004C347.715 351.004 357.285 341.417 357.285 329.591C357.285 317.765 347.715 308.178 335.91 308.178C324.105 308.178 314.535 317.765 314.535 329.591C314.535 341.417 324.105 351.004 335.91 351.004Z" fill="#FEE77B"/>
<path d="M335.908 361.004C318.608 361.004 304.533 346.912 304.533 329.591C304.533 312.27 318.608 298.178 335.908 298.178C353.209 298.178 367.284 312.27 367.284 329.591C367.284 346.912 353.209 361.004 335.908 361.004ZM335.908 318.178C329.636 318.178 324.533 323.298 324.533 329.591C324.533 335.884 329.636 341.004 335.908 341.004C342.18 341.004 347.284 335.884 347.284 329.591C347.284 323.298 342.181 318.178 335.908 318.178Z" fill="#546A7B"/>
<path d="M300.775 207.919C354.15 207.919 397.419 164.573 397.419 111.103C397.419 57.6331 354.15 14.2871 300.775 14.2871C247.4 14.2871 204.131 57.6331 204.131 111.103C204.131 164.573 247.4 207.919 300.775 207.919Z" fill="#00B6C8"/>
<path d="M300.775 166.128C270.488 166.128 245.848 141.444 245.848 111.103C245.848 80.7621 270.488 56.0781 300.775 56.0781C331.061 56.0781 355.701 80.7621 355.701 111.103C355.701 141.444 331.062 166.128 300.775 166.128Z" fill="white"/>
<path d="M300.774 176.128C264.972 176.128 235.846 146.958 235.846 111.104C235.846 75.2491 264.972 46.0791 300.774 46.0791C336.574 46.0791 365.7 75.2491 365.7 111.104C365.7 146.958 336.574 176.128 300.774 176.128ZM300.774 66.0781C276.001 66.0781 255.846 86.2761 255.846 111.103C255.846 135.929 276 156.127 300.774 156.127C325.546 156.127 345.7 135.929 345.7 111.103C345.7 86.2761 325.547 66.0781 300.774 66.0781V66.0781Z" fill="#546A7B"/>
<path d="M107.486 207.919C160.861 207.919 204.13 164.573 204.13 111.103C204.13 57.6331 160.861 14.2871 107.486 14.2871C54.1108 14.2871 10.8418 57.6331 10.8418 111.103C10.8418 164.573 54.1108 207.919 107.486 207.919Z" fill="#00B6C8"/>
<path d="M507.41 225.814C504.55 223.973 500.949 223.713 497.853 225.125L420.222 260.496V233.876C420.222 214.049 404.113 197.919 384.311 197.919H362.84C389.815 178.517 407.418 146.831 407.418 111.104C407.418 52.2061 359.577 4.28809 300.773 4.28809C258.068 4.28809 221.145 29.5611 204.129 65.9581C187.113 29.5611 150.191 4.28809 107.485 4.28809C48.683 4.28709 0.842 52.2051 0.842 111.104C0.842 146.831 18.445 178.517 45.42 197.919H35.911C16.109 197.919 0 214.049 0 233.876V471.755C0 491.582 16.109 507.713 35.911 507.713H384.311C404.113 507.713 420.222 491.582 420.222 471.755V445.136L497.853 480.507C499.175 481.11 500.589 481.407 501.999 481.407C503.89 481.407 505.772 480.872 507.41 479.817C510.27 477.977 512 474.808 512 471.407V234.225C512 230.823 510.271 227.654 507.41 225.814V225.814ZM300.773 24.2871C348.549 24.2871 387.418 63.2321 387.418 111.103C387.418 158.973 348.55 197.918 300.773 197.918C252.998 197.918 214.129 158.973 214.129 111.103C214.13 63.2321 252.998 24.2871 300.773 24.2871ZM238.708 197.919H169.552C184.353 187.274 196.332 172.93 204.13 156.25C211.928 172.93 223.907 187.273 238.708 197.919V197.919ZM20.842 111.104C20.842 63.2331 59.71 24.2881 107.487 24.2881C155.262 24.2881 194.131 63.2331 194.131 111.104C194.131 158.974 155.263 197.919 107.487 197.919C59.71 197.919 20.842 158.974 20.842 111.104V111.104ZM400.223 471.755C400.223 480.554 393.085 487.713 384.312 487.713H35.912C27.139 487.713 20.001 480.554 20.001 471.755V233.876C20.001 225.077 27.139 217.919 35.912 217.919H58.606V392.161C58.606 397.683 63.084 402.161 68.606 402.161C74.128 402.161 78.606 397.683 78.606 392.161V217.919H384.312C393.085 217.919 400.223 225.077 400.223 233.876V471.755ZM492 455.862L420.223 423.158V282.474L492 249.77V455.862Z" fill="#546A7B"/>
<path d="M107.487 166.128C77.2005 166.128 52.5605 141.444 52.5605 111.103C52.5605 80.7621 77.2005 56.0781 107.487 56.0781C137.774 56.0781 162.414 80.7621 162.414 111.103C162.414 141.444 137.774 166.128 107.487 166.128V166.128Z" fill="white"/>
<path d="M107.485 176.128C71.6846 176.128 42.5586 146.958 42.5586 111.104C42.5586 75.2491 71.6846 46.0791 107.485 46.0791C143.287 46.0791 172.413 75.2491 172.413 111.104C172.413 146.958 143.287 176.128 107.485 176.128V176.128ZM107.485 66.0781C82.7126 66.0781 62.5586 86.2761 62.5586 111.103C62.5586 135.929 82.7116 156.127 107.485 156.127C132.258 156.127 152.413 135.929 152.413 111.103C152.413 86.2761 132.259 66.0781 107.485 66.0781V66.0781Z" fill="#546A7B"/>
</svg>

<svg id="Capa_1" enable-background="new 0 0 512 512" height="512" viewBox="0 0 512 512" width="512" xmlns="http://www.w3.org/2000/svg"><g><g><g><g><path d="m68.605 497.713h315.706c14.31 0 25.911-11.622 25.911-25.957v-237.88c0-14.336-11.601-25.958-25.911-25.958h-315.706" fill="#b8ecff"/><path d="m68.605 392.161v-184.242h-32.694c-14.31 0-25.911 11.621-25.911 25.957v237.879c0 14.336 11.601 25.957 25.911 25.957h32.694" fill="#6eb4c7"/><g><path d="" fill="#6eb4c7"/><path d="m68.609 443.92c-6.895.205-12.074-7.532-9.239-13.83 3.295-8.154 15.175-8.155 18.469 0 2.841 6.291-2.342 14.03-9.23 13.83z"/></g></g></g><path d="m502 471.407-91.777-41.816v-153.55l91.777-41.816z" fill="#6eb4c7"/><g><g><path d="m163.309 387.725h193.974v63.731h-193.974z" fill="#fff"/></g><g><path d="m357.283 461.456h-193.973c-5.523 0-10-4.478-10-10v-63.73c0-5.522 4.477-10 10-10h193.974c5.522 0 10 4.478 10 10v63.73c-.001 5.522-4.478 10-10.001 10zm-183.973-20h173.974v-43.73h-173.974z"/></g></g><g><g><g><ellipse cx="265.64" cy="329.591" fill="#ff5d5d" rx="21.375" ry="21.413"/></g><g><path d="m265.64 361.004c-17.3 0-31.375-14.092-31.375-31.413s14.075-31.413 31.375-31.413 31.375 14.092 31.375 31.413-14.075 31.413-31.375 31.413zm0-42.826c-6.272 0-11.375 5.12-11.375 11.413s5.103 11.413 11.375 11.413c6.273 0 11.375-5.12 11.375-11.413s-5.103-11.413-11.375-11.413z"/></g></g><g><g><ellipse cx="335.908" cy="329.591" fill="#fee77b" rx="21.375" ry="21.413"/></g><g><path d="m335.907 361.004c-17.3 0-31.375-14.092-31.375-31.413s14.075-31.413 31.375-31.413c17.301 0 31.376 14.092 31.376 31.413s-14.075 31.413-31.376 31.413zm0-42.826c-6.272 0-11.375 5.12-11.375 11.413s5.103 11.413 11.375 11.413 11.376-5.12 11.376-11.413-5.103-11.413-11.376-11.413z"/></g></g></g></g><g><g><ellipse cx="300.774" cy="111.103" fill="#00dba8" rx="96.644" ry="96.816"/></g><g><path d="m300.774 166.128c-30.287 0-54.927-24.684-54.927-55.025s24.64-55.025 54.927-55.025c30.286 0 54.926 24.684 54.926 55.025s-24.639 55.025-54.926 55.025z" fill="#fff"/><path d="m300.774 176.128c-35.802 0-64.928-29.17-64.928-65.024 0-35.855 29.126-65.025 64.928-65.025 35.8 0 64.926 29.17 64.926 65.025 0 35.854-29.126 65.024-64.926 65.024zm0-110.05c-24.773 0-44.928 20.198-44.928 45.025 0 24.826 20.154 45.024 44.928 45.024 24.772 0 44.926-20.198 44.926-45.024 0-24.827-20.153-45.025-44.926-45.025z"/></g><g><g><ellipse cx="107.486" cy="111.103" fill="#00dba8" rx="96.644" ry="96.816"/></g><path d="m507.41 225.814c-2.86-1.841-6.461-2.101-9.557-.689l-77.631 35.371v-26.62c0-19.827-16.109-35.957-35.911-35.957h-21.471c26.975-19.402 44.578-51.088 44.578-86.815 0-58.898-47.841-106.816-106.645-106.816-42.705 0-79.628 25.273-96.644 61.67-17.016-36.397-53.938-61.67-96.644-61.67-58.802-.001-106.643 47.917-106.643 106.816 0 35.727 17.603 67.413 44.578 86.815h-9.509c-19.802 0-35.911 16.13-35.911 35.957v237.879c0 19.827 16.109 35.958 35.911 35.958h348.4c19.802 0 35.911-16.131 35.911-35.958v-26.619l77.631 35.371c1.322.603 2.736.9 4.146.9 1.891 0 3.773-.535 5.411-1.59 2.86-1.84 4.59-5.009 4.59-8.41v-237.182c0-3.402-1.729-6.571-4.59-8.411zm-206.637-201.527c47.776 0 86.645 38.945 86.645 86.816 0 47.87-38.868 86.815-86.645 86.815-47.775 0-86.644-38.945-86.644-86.815.001-47.871 38.869-86.816 86.644-86.816zm-62.065 173.632h-69.156c14.801-10.645 26.78-24.989 34.578-41.669 7.798 16.68 19.777 31.023 34.578 41.669zm-217.866-86.815c0-47.871 38.868-86.816 86.645-86.816 47.775 0 86.644 38.945 86.644 86.816 0 47.87-38.868 86.815-86.644 86.815-47.777 0-86.645-38.945-86.645-86.815zm379.381 360.651c0 8.799-7.138 15.958-15.911 15.958h-348.4c-8.773 0-15.911-7.159-15.911-15.958v-237.879c0-8.799 7.138-15.957 15.911-15.957h22.694v174.242c0 5.522 4.478 10 10 10s10-4.478 10-10v-174.242h305.706c8.773 0 15.911 7.158 15.911 15.957zm91.777-15.893-71.777-32.704v-140.684l71.777-32.704z"/></g><g><path d="m107.486 166.128c-30.286 0-54.926-24.684-54.926-55.025s24.64-55.025 54.926-55.025c30.287 0 54.927 24.684 54.927 55.025s-24.64 55.025-54.927 55.025z" fill="#fff"/><path d="m107.485 176.128c-35.8 0-64.926-29.17-64.926-65.024 0-35.855 29.126-65.025 64.926-65.025 35.802 0 64.928 29.17 64.928 65.025 0 35.854-29.126 65.024-64.928 65.024zm0-110.05c-24.772 0-44.926 20.198-44.926 45.025 0 24.826 20.153 45.024 44.926 45.024s44.928-20.198 44.928-45.024c0-24.827-20.154-45.025-44.928-45.025z"/></g></g></g></svg>
